X: 4272
T: ENGLISH CLOG HORNPIPE
R: Hornpipe.
%R: hornpipe, reel
B: James Kerr "Merry Melodies" v.4 p.29 #272
Z: 2016 John Chambers <jc:trillian.mit.edu>
M: C|
L: 1/8
K: A
c>B |\
(3(AcA) E>G A>ce>c | d>fB>d g>eb>g |\
[1 a>ec>A f>ec>A | G>AB>c d>EF>G :|\
[2 a>ec>A G.AB>d | c2A2A2 H|]
c>d |:\
(3eae c>e A>ce>a | (3faf d>f B>df>a |\
[1 (3gbg e>g B>ef>e | d>cB>A G>Bc>d :|\
[2 (3gbg e>g (3faf ^d>f | e2g2e2 :|

%%sep 1 1 500
%%sep 1 1 500

